!!!OTL: Sijile
!!!ARE: Asia, China, Henan, Shangcheng
!! IV, 114
!!!SCT: C1937
!!!YEM: Copyright 1995, estate of Helmut Schaffrath.
**kern
*ICvox
*Ivox
*M2/4
*k[b-]
*F:
{8cc
16a
16g
8cc
16a
16g
=1
16a
16g
16a
16f
8cc
16a
16g
=2
16f
16f
16f
16g
4cc}
=3
{16a
16g
16f
16a
4g
=4
16g
16g
16g
16a
8f
8g
=5
8.c
16d
4g
=6
8d
8g
8d
8g
=7
16d
16c
16A
16d
4c}
=8
{8cc
16a
16g
8cc
16a
16g
=9
16a
16g
16f
16g
16f
16g
16f
16a
=10
16f
16g
16f
16a
4cc}
=11
{16a
16g
16f
16a
4g
=12
16g
16g
16g
16a
8d
8g
=13
8.c
16d
4g}
=14
{8d
8g
8d
8g
=15
16d
16c
16A
16d
4c}
==
!!!AGN: Xiaodiao, Shiyuehuaming
!!!AMT: simple duple
!!!AIN: vox
!!!EED: Helmut Schaffrath
!!!EEV: 1.0
*-
